X:1
T:(1906)
T:J. C. Folwell (fl.1904)
T:Mountain Breezes
%%score { ( 1 2 3 ) ( 4 5 6 ) }
L:1/8
Q:1/4=132
M:3/4
K:G
V:1 treble-8 nm="Guitare classique"
V:2 treble-8 
V:3 treble-8 
V:4 tab stafflines=6 strings=E2,A2,D3,G3,B3,E4 nostems nm="Guitare classique [Tablature]"
V:5 tab stafflines=6 strings=E2,A2,D3,G3,B3,E4 nostems 
V:6 tab stafflines=6 strings=E2,A2,D3,G3,B3,E4 nostems 
V:1
S"_" !arpeggio!!3!!2!!1![GBd]2 e2 !2!f2 | !arpeggio!!4![GBg]2 !4!a2 !4!g2 | !4!g6 | !3!f6 | %4
 [Ac]2 !4!d2 e2 | [Acf]2 g2 f2 | e6 |"^III" !1!d6 |"_" [GB]2 d2 g2 | b2 c'2 b2 |"^V" !4!b6 | %11
"^₵5" a6 |1 !4!g6 |!>(! f6 | e6 | !1!d6!>)! :|2!>(! e6 | f6 | g6-!>)! | g4 z2!fine! |:"_" B6 | %21
 DEFGAB | !1!c6 | D6 | c6 | DEFGA^A | B6 | D6 | !1!d6 | GABc^cd | e6 | !3!g6 |1 !4!a6 | %33
 e"_rit."^degfe | f6 | ^cdfed=c :|2 B6 | !2!A6 | G6 | [GBg]4 z2 |:[K:C]"_" [Gce]!4!g e2 !4!g2 | %41
 e6 | [Gce]g e2 g2 | f6 |"_" z6 | z2 [GBf]2 [GBf]2 | z6 | z2 [Gce]2 [Gce]2 |"_" [Gce]g e2 g2 | %49
 e6 | [Gce]g e2 g2 | f6 |"_" z6 | z2 [GBf]2 z2 | z2 [Gce]2 [Gce]2 | [EGc]4 z2!D.C.! :| %56
V:2
 z6 | D6 | A,6 | D6 | A,6 | D6 | G,6 | z2 !3!!2![GB]2 [GB]2 | G,4 z2 | E,6 | A,6 | A,6 |1 D6 | D6 | %14
 E,6 | z2 !3!!2![GB]2 [GB]2 :|2 A,6 | D6 | G,6 | G,4 z2 |: G,2 [Gg]2 [Gg]2 | x6 | %22
 A,2 !2!!3![Af]2 [Af]2 | z2 [Acf]2 [Acf]2 | A,2 [Af]2 [Af]2 | x6 | G,2 [Gg]2 [Gg]2 | %27
 z2 [GBg]2 [GBg]2 | z2 !3!!2![GB]2 [GB]2 | x6 | C6 | E,6 |1 A,6 | A,6 | D6 | D6 :|2 %36
 G,2 [Gg]2 [Gg]2 | D2 !1!!3![cf]2 [cf]2 | G,2 [Bg]2 [Bg]2 | G,4 z2 |:[K:C] C4 z2 | C6 | C4 z2 | %43
 D6 | !>!G,2 !>!A,2 !>!E2 | !>!D6 | !>!G,2 !>!A,2 !>!E2 | !>!C6 | C4 z2 | C6 | C4 z2 | D6 | %52
 !>!G,2 !>!A,2 !>!E2 | !>!D4 !>!E2 | !>!C6 | !>!C4 z2 :| %56
V:3
 x6 | x6 | z2 !2!!1![Ac]2 [Ac]2 | z2 [Ac]2 [Ac]2 | x6 | x6 | z2 [GB]2 [GB]2 | x6 | x6 | x6 | %10
 z2 !2!!1![^ce]2 [ce]2 | z2 [^ce]2 [ce]2 |1 z2 !2!!1![Ac]2 [Ac]2 | z2 [Ac]2 [Ac]2 | %14
 z2 [_B^c]2 !2!!1![Bc]2 | x6 :|2 z2 [G^c]2 [Gc]2 | z2 [A=c]2 [Ac]2 | z2 [DGB]2 [DGB]2 | x6 |: x6 | %21
 x6 | x6 | x6 | x6 | x6 | x6 | x6 | x6 | x6 | z2 [Gc]2 [Gc]2 | z2 [_B^c]2 !2!!1![Bc]2 |1 %32
 z2 !1![G^c]2 [Gc]2 | x6 | z2 [Ac]2 [Ac]2 | x6 :|2 x6 | x6 | x6 | x6 |:[K:C] x6 | z2 [Gc]2 [Gc]2 | %42
 x6 | z2 [GB]2 [GB]2 | x6 | x6 | x6 | x6 | x6 | z2 [Gc]2 [Gc]2 | x6 | z2 [GB]2 [GB]2 | x6 | x6 | %54
 x6 | x6 :| %56
V:4
 [!4!G,!3!B,!2!D]2 !1!E2 !1!F2 | [!3!G,!2!B,!1!G]2 !1!A2 !1!G2 | !1!G6 | !1!F6 | %4
 [!3!A,!2!C]2 !2!D2 !1!E2 | [!3!A,!2!C!1!F]2 !1!G2 !1!F2 | !1!E6 | !2!D6 | %8
 [!3!G,!2!B,]2 !2!D2 !1!G2 | !1!B2 !1!c2 !1!B2 | !1!B6 | !1!A6 |1 !1!G6 | !1!F6 | !1!E6 | !2!D6 :|2 %16
 !1!E6 | !1!F6 | !1!G6- | !1!G4 x2 |: !2!B,6 | !4!D, !4!E, !4!F, !3!G, !3!A, !2!B, | !2!C6 | %23
 !4!D,6 | !2!C6 | !4!D, !4!E, !4!F, !3!G, !3!A, !3!^A, | !2!B,6 | !4!D,6 | !2!D6 | %29
 !3!G, !3!A, !2!B, !2!C !2!^C !2!D | !1!E6 | !1!G6 |1 !1!A6 | !1!E !2!^D !1!E !1!G !1!F !1!E | %34
 !1!F6 | !2!^C !2!D !1!F !1!E !2!D !2!=C :|2 !2!B,6 | !3!A,6 | !3!G,6 | [!3!G,!2!B,!1!G]4 x2 |: %40
[K:C] [!3!G,!2!C!1!E] !1!G !1!E2 !1!G2 | !1!E6 | [!3!G,!2!C!1!E] !1!G !1!E2 !1!G2 | !1!F6 | x6 | %45
 x2 [!3!G,!2!B,!1!F]2 [!3!G,!2!B,!1!F]2 | x6 | x2 [!3!G,!2!C!1!E]2 [!3!G,!2!C!1!E]2 | %48
 [!3!G,!2!C!1!E] !1!G !1!E2 !1!G2 | !1!E6 | [!3!G,!2!C!1!E] !1!G !1!E2 !1!G2 | !1!F6 | x6 | %53
 x2 [!3!G,!2!B,!1!F]2 x2 | x2 [!3!G,!2!C!1!E]2 [!3!G,!2!C!1!E]2 | [!4!E,!3!G,!2!C]4 x2 :| %56
V:5
 x6 | !4!D,6 | !5!A,,6 | !4!D,6 | !5!A,,6 | !4!D,6 | !6!G,,6 | x2 [!4!G,!3!B,]2 [!4!G,!3!B,]2 | %8
 !6!G,,4 x2 | !6!E,,6 | !5!A,,6 | !5!A,,6 |1 !4!D,6 | !4!D,6 | !6!E,,6 | %15
 x2 [!4!G,!3!B,]2 [!4!G,!3!B,]2 :|2 !5!A,,6 | !4!D,6 | !6!G,,6 | !6!G,,4 x2 |: %20
 !6!G,,2 [!3!G,!1!G]2 [!3!G,!1!G]2 | x6 | !5!A,,2 [!3!A,!1!F]2 [!3!A,!1!F]2 | %23
 x2 [!3!A,!2!C!1!F]2 [!3!A,!2!C!1!F]2 | !5!A,,2 [!3!A,!1!F]2 [!3!A,!1!F]2 | x6 | %26
 !6!G,,2 [!3!G,!1!G]2 [!3!G,!1!G]2 | x2 [!3!G,!2!B,!1!G]2 [!3!G,!2!B,!1!G]2 | %28
 x2 [!4!G,!3!B,]2 [!4!G,!3!B,]2 | x6 | !5!C,6 | !6!E,,6 |1 !5!A,,6 | !5!A,,6 | !4!D,6 | !4!D,6 :|2 %36
 !6!G,,2 [!3!G,!1!G]2 [!3!G,!1!G]2 | !4!D,2 [!2!C!1!F]2 [!2!C!1!F]2 | %38
 !6!G,,2 [!2!B,!1!G]2 [!2!B,!1!G]2 | !6!G,,4 x2 |:[K:C] !5!C,4 x2 | !5!C,6 | !5!C,4 x2 | !4!D,6 | %44
 !6!G,,2 !5!A,,2 !4!E,2 | !4!D,6 | !6!G,,2 !5!A,,2 !4!E,2 | !5!C,6 | !5!C,4 x2 | !5!C,6 | %50
 !5!C,4 x2 | !4!D,6 | !6!G,,2 !5!A,,2 !4!E,2 | !4!D,4 !4!E,2 | !5!C,6 | !5!C,4 x2 :| %56
V:6
 x6 | x6 | x2 [!3!A,!2!C]2 [!3!A,!2!C]2 | x2 [!3!A,!2!C]2 [!3!A,!2!C]2 | x6 | x6 | %6
 x2 [!3!G,!2!B,]2 [!3!G,!2!B,]2 | x6 | x6 | x6 | x2 [!3!^C!2!E]2 [!3!C!2!E]2 | %11
 x2 [!3!^C!2!E]2 [!3!C!2!E]2 |1 x2 [!3!A,!2!C]2 [!3!A,!2!C]2 | x2 [!3!A,!2!C]2 [!3!A,!2!C]2 | %14
 x2 [!3!_B,!2!^C]2 [!3!B,!2!C]2 | x6 :|2 x2 [!3!G,!2!^C]2 [!3!G,!2!C]2 | %17
 x2 [!3!A,!2!=C]2 [!3!A,!2!C]2 | x2 [!4!D,!3!G,!2!B,]2 [!4!D,!3!G,!2!B,]2 | x6 |: x6 | x6 | x6 | %23
 x6 | x6 | x6 | x6 | x6 | x6 | x6 | x2 [!3!G,!2!C]2 [!3!G,!2!C]2 | %31
 x2 [!3!_B,!2!^C]2 [!3!B,!2!C]2 |1 x2 [!3!G,!2!^C]2 [!3!G,!2!C]2 | x6 | %34
 x2 [!3!A,!2!C]2 [!3!A,!2!C]2 | x6 :|2 x6 | x6 | x6 | x6 |:[K:C] x6 | %41
 x2 [!3!G,!2!C]2 [!3!G,!2!C]2 | x6 | x2 [!3!G,!2!B,]2 [!3!G,!2!B,]2 | x6 | x6 | x6 | x6 | x6 | %49
 x2 [!3!G,!2!C]2 [!3!G,!2!C]2 | x6 | x2 [!3!G,!2!B,]2 [!3!G,!2!B,]2 | x6 | x6 | x6 | x6 :| %56

